dist/flags/s/GB-NIR.svg

<svg width="16" height="12" viewBox="0 0 16 12" fill="none" xmlns="http://www.w3.org/2000/svg">
<mask id="mask0" mask-type="alpha" maskUnits="userSpaceOnUse" x="0" y="0" width="16" height="12">
<rect width="16" height="12" fill="white"/>
</mask>
<g mask="url(#mask0)">
<path fill-rule="evenodd" clip-rule="evenodd" d="M0 0V12H16V0H0Z" fill="#2E42A5"/>
<mask id="mask1" mask-type="alpha" maskUnits="userSpaceOnUse" x="0" y="0" width="16" height="12">
<path fill-rule="evenodd" clip-rule="evenodd" d="M0 0V12H16V0H0Z" fill="white"/>
</mask>
<g mask="url(#mask1)">
<mask id="mask2" mask-type="alpha" maskUnits="userSpaceOnUse" x="0" y="0" width="16" height="12">
<rect width="16" height="12" fill="white"/>
</mask>
<g mask="url(#mask2)">
<path d="M-1.78162 11.1427L1.73923 12.6317L16.0798 1.6189L17.937 -0.593837L14.172 -1.09151L8.32278 3.65422L3.61478 6.85174L-1.78162 11.1427Z" fill="white"/>
<path d="M-1.29962 12.1859L0.494086 13.05L17.2701 -0.799421H14.7515L-1.29962 12.1859Z" fill="#F50100"/>
<path d="M17.7816 11.1427L14.2607 12.6317L-0.0799084 1.6189L-1.93707 -0.593837L1.82796 -1.09151L7.67716 3.65422L12.3852 6.85174L17.7816 11.1427Z" fill="white"/>
<path d="M17.6614 11.8914L15.8677 12.7555L8.7243 6.82582L6.60643 6.16331L-2.11579 -0.586292H0.402788L9.12011 6.0031L11.4356 6.79752L17.6614 11.8914Z" fill="#F50100"/>
<mask id="path-10-inside-1" fill="white">
<path fill-rule="evenodd" clip-rule="evenodd" d="M9.88885 -1H6.11108V4H-0.986267V8H6.11108V13H9.88885V8H17.0137V4H9.88885V-1Z"/>
</mask>
<path fill-rule="evenodd" clip-rule="evenodd" d="M9.88885 -1H6.11108V4H-0.986267V8H6.11108V13H9.88885V8H17.0137V4H9.88885V-1Z" fill="#F50100"/>
<path d="M6.11108 -1V-2H5.11108V-1H6.11108ZM9.88885 -1H10.8889V-2H9.88885V-1ZM6.11108 4V5H7.11108V4H6.11108ZM-0.986267 4V3H-1.98627V4H-0.986267ZM-0.986267 8H-1.98627V9H-0.986267V8ZM6.11108 8H7.11108V7H6.11108V8ZM6.11108 13H5.11108V14H6.11108V13ZM9.88885 13V14H10.8889V13H9.88885ZM9.88885 8V7H8.88885V8H9.88885ZM17.0137 8V9H18.0137V8H17.0137ZM17.0137 4H18.0137V3H17.0137V4ZM9.88885 4H8.88885V5H9.88885V4ZM6.11108 0H9.88885V-2H6.11108V0ZM7.11108 4V-1H5.11108V4H7.11108ZM-0.986267 5H6.11108V3H-0.986267V5ZM0.0137329 8V4H-1.98627V8H0.0137329ZM6.11108 7H-0.986267V9H6.11108V7ZM7.11108 13V8H5.11108V13H7.11108ZM9.88885 12H6.11108V14H9.88885V12ZM8.88885 8V13H10.8889V8H8.88885ZM17.0137 7H9.88885V9H17.0137V7ZM16.0137 4V8H18.0137V4H16.0137ZM9.88885 5H17.0137V3H9.88885V5ZM8.88885 -1V4H10.8889V-1H8.88885Z" fill="white" mask="url(#path-10-inside-1)"/>
</g>
</g>
</g>
</svg>

<svg width="16" height="12" fill="none" xmlns="http://www.w3.org/2000/svg">
  <mask id="a" maskUnits="userSpaceOnUse" x="0" y="0" width="16" height="12">
    <path fill="#fff" d="M0 0h16v12H0z"/>
  </mask>
  <g mask="url(#a)">
    <path fill-rule="evenodd" clip-rule="evenodd" d="M0 0v12h16V0H0z" fill="#2E42A5"/>
    <mask id="b" maskUnits="userSpaceOnUse" x="0" y="0" width="16" height="12">
      <path fill-rule="evenodd" clip-rule="evenodd" d="M0 0v12h16V0H0z" fill="#fff"/>
    </mask>
    <g mask="url(#b)">
      <mask id="c" maskUnits="userSpaceOnUse" x="0" y="0" width="16" height="12">
        <path fill="#fff" d="M0 0h16v12H0z"/>
      </mask>
      <g mask="url(#c)">
        <path d="M-1.782 11.143l3.521 1.489L16.08 1.619l1.858-2.213-3.765-.497-5.85 4.745-4.707 3.198-5.397 4.29z" fill="#fff"/>
        <path d="M-1.3 12.186l1.794.864L17.27-.8h-2.518L-1.3 12.187z" fill="#F50100"/>
        <path d="M17.782 11.143l-3.521 1.489L-.08 1.619-1.938-.594l3.765-.497 5.85 4.745 4.707 3.198 5.397 4.29z" fill="#fff"/>
        <path d="M17.661 11.891l-1.793.865-7.144-5.93-2.118-.663-8.722-6.75H.403l8.717 6.59 2.316.795 6.225 5.093z" fill="#F50100"/>
        <mask id="d" fill="#fff">
          <path fill-rule="evenodd" clip-rule="evenodd" d="M9.889-1H6.11v5H-.986v4H6.11v5h3.78V8h7.125V4H9.889v-5z"/>
        </mask>
        <path fill-rule="evenodd" clip-rule="evenodd" d="M9.889-1H6.11v5H-.986v4H6.11v5h3.78V8h7.125V4H9.889v-5z" fill="#F50100"/>
        <path d="M6.111-1v-1h-1v1h1zM9.89-1h1v-1h-1v1zM6.11 4v1h1V4h-1zM-.986 4V3h-1v1h1zm0 4h-1v1h1V8zM6.11 8h1V7h-1v1zm0 5h-1v1h1v-1zm3.778 0v1h1v-1h-1zm0-5V7h-1v1h1zm7.125 0v1h1V8h-1zm0-4h1V3h-1v1zM9.889 4h-1v1h1V4zM6.11 0h3.78v-2H6.11v2zm1 4v-5h-2v5h2zM-.986 5H6.11V3H-.986v2zm1 3V4h-2v4h2zM6.11 7H-.986v2H6.11V7zm1 6V8h-2v5h2zm2.778-1H6.11v2h3.78v-2zm-1-4v5h2V8h-2zm8.125-1H9.889v2h7.125V7zm-1-3v4h2V4h-2zM9.889 5h7.125V3H9.889v2zm-1-6v5h2v-5h-2z" fill="#fff" mask="url(#d)"/>
      </g>
    </g>
  </g>
</svg>
